images/dots.svg

<svg viewBox="0 0 24 24" fill="none" xmlns="http://www.w3.org/2000/svg"><path fill-rule="evenodd" clip-rule="evenodd" d="M12 8c1.1 0 2-.9 2-2s-.9-2-2-2-2 .9-2 2 .9 2 2 2zm0 2c-1.1 0-2 .9-2 2s.9 2 2 2 2-.9 2-2-.9-2-2-2zm-2 8c0-1.1.9-2 2-2s2 .9 2 2-.9 2-2 2-2-.9-2-2z" fill="#333"/></svg>

<svg viewBox="0 0 24 24" fill="none" xmlns="http://www.w3.org/2000/svg">
<g id="more_vert_24px">
<path id="icon/navigation/more_vert_24px" fill-rule="evenodd" clip-rule="evenodd" d="M12 8C13.1 8 14 7.1 14 6C14 4.9 13.1 4 12 4C10.9 4 10 4.9 10 6C10 7.1 10.9 8 12 8ZM12 10C10.9 10 10 10.9 10 12C10 13.1 10.9 14 12 14C13.1 14 14 13.1 14 12C14 10.9 13.1 10 12 10ZM10 18C10 16.9 10.9 16 12 16C13.1 16 14 16.9 14 18C14 19.1 13.1 20 12 20C10.9 20 10 19.1 10 18Z" fill="#333333"/>
</g>
</svg>
